image/mintve.svg

<svg fill="none" height="66" viewBox="0 0 339 66" width="339" xmlns="http://www.w3.org/2000/svg"><g fill="#ff4d00" stroke="#ff4d00" stroke-miterlimit="10" stroke-width=".58815"><path d="m247.965 46.9622-11.845-45.57719h8.252l13.547 55.80849c-2.437-.6307-4.654-1.9182-6.409-3.7224-1.756-1.8042-2.982-4.0556-3.545-6.5089zm10.944 14.2671-.99-4.0358c3.36.8307 6.871.8307 10.231 0l-.99 4.0358c-.54 2.4228-1.703 4.0358-4.153 4.0358-2.451 0-3.468-1.5991-4.098-4.022zm22.698-59.83045h8.252l-11.768 45.57715c-.564 2.4533-1.79 4.7048-3.545 6.5089-1.756 1.8042-3.973 3.0918-6.41 3.7225z"/><path d="m296.684 19.2726v-17.87367h40.842v6.45862h-33.304v20.63575c-5.655-.63-7.538-3.4059-7.538-9.2207zm0 25.1215c0-4.8457 1.883-8.4316 7.538-9.3315v22.6986h34.183v6.4656h-41.721zm7.538-15.8801c.921.0775 1.845.1075 2.769.09h28.798v6.2786h-28.798c-.925.0098-1.85.0699-2.769.18z"/><path d="m73.9345 1.1842v63.347h-16.8837v-17.9982c0-10.5913.09-19.4867.533-29.628-1.156 4.6242-2.2221 8.7153-3.7312 14.0525l-9.1653 33.546h-14.4124l-9.1653-33.546c-1.516-5.3372-2.5821-9.4283-3.7381-14.0525.443 10.1413.533 19.0367.533 29.628v17.9982h-16.9045v-63.347h27.2466l6.0502 24.0208c1.066 4.3611 2.2221 9.0753 3.2051 13.6164.976-4.5411 2.1321-9.2553 3.1981-13.6164l6.0502-24.0208z"/><path d="m83.0515 1.1842h17.7975v63.347h-17.7975z"/><path d="m167.325 1.1842v63.347h-18.773l-13.437-22.5117c-3.288-5.6071-6.05-10.2313-8.715-15.6585.353 9.4284.443 17.8806.443 27.8489v10.3213h-16.912v-63.347h18.774l13.436 22.5117c2.576 4.3542 5.961 10.2313 8.716 15.7416-.353-9.4284-.443-17.9983-.443-27.932v-10.3213z"/><path d="m228.713 17.0227h-18.691v47.5085h-17.784v-47.5085h-18.69v-15.8385h55.158z"/></g></svg>

<svg width="339" height="66" viewBox="0 0 339 66" fill="none" xmlns="http://www.w3.org/2000/svg">
<path d="M247.965 46.9622L236.12 1.38501H244.372L257.919 57.1935C255.482 56.5628 253.265 55.2753 251.51 53.4711C249.754 51.6669 248.528 49.4155 247.965 46.9622ZM258.909 61.2293L257.919 57.1935C261.279 58.0242 264.79 58.0242 268.15 57.1935L267.16 61.2293C266.62 63.6521 265.457 65.2651 263.007 65.2651C260.556 65.2651 259.539 63.666 258.909 61.2431V61.2293ZM281.607 1.39885H289.859L278.091 46.976C277.527 49.4293 276.301 51.6808 274.546 53.4849C272.79 55.2891 270.573 56.5767 268.136 57.2074L281.607 1.39885Z" fill="#FF4D00" stroke="#FF4D00" stroke-width="0.58815" stroke-miterlimit="10"/>
<path d="M296.684 19.2726V1.39893H337.526V7.85755H304.222V28.4933C298.567 27.8633 296.684 25.0874 296.684 19.2726ZM296.684 44.3941C296.684 39.5484 298.567 35.9625 304.222 35.0626V57.7612H338.405V64.2268H296.684V44.3941ZM304.222 28.514C305.143 28.5915 306.067 28.6215 306.991 28.604H335.789V34.8826H306.991C306.066 34.8924 305.141 34.9525 304.222 35.0626V28.514Z" fill="#FF4D00" stroke="#FF4D00" stroke-width="0.58815" stroke-miterlimit="10"/>
<path d="M73.9345 1.1842V64.5312H57.0508V46.533C57.0508 35.9417 57.1408 27.0463 57.5838 16.905C56.4278 21.5292 55.3617 25.6203 53.8526 30.9575L44.6873 64.5035H30.2749L21.1096 30.9575C19.5936 25.6203 18.5275 21.5292 17.3715 16.905C17.8145 27.0463 17.9045 35.9417 17.9045 46.533V64.5312H1V1.1842H28.2466L34.2968 25.205C35.3628 29.5661 36.5189 34.2803 37.5019 38.8214C38.4779 34.2803 39.634 29.5661 40.7 25.205L46.7502 1.1842H73.9345Z" fill="#FF4D00" stroke="#FF4D00" stroke-width="0.58815" stroke-miterlimit="10"/>
<path d="M83.0515 1.1842H100.849V64.5312H83.0515V1.1842Z" fill="#FF4D00" stroke="#FF4D00" stroke-width="0.58815" stroke-miterlimit="10"/>
<path d="M167.325 1.1842V64.5312H148.552L135.115 42.0195C131.827 36.4124 129.065 31.7882 126.4 26.361C126.753 35.7894 126.843 44.2416 126.843 54.2099V64.5312H109.931V1.1842H128.705L142.141 23.6959C144.717 28.0501 148.102 33.9272 150.857 39.4375C150.504 30.0091 150.414 21.4392 150.414 11.5055V1.1842H167.325Z" fill="#FF4D00" stroke="#FF4D00" stroke-width="0.58815" stroke-miterlimit="10"/>
<path d="M228.713 17.0227H210.022V64.5312H192.238V17.0227H173.548V1.1842H228.706L228.713 17.0227Z" fill="#FF4D00" stroke="#FF4D00" stroke-width="0.58815" stroke-miterlimit="10"/>
</svg>
